X: 27137
T: Miss McGuinness
R: reel
M: 4/4
K: Gmajor
|:d~G3 dGBd|d~G2g edge|d~G3 dGBd|1 (3.e.f.g dB BA AB:|2 (3.e.f.g dB BA Ag||
|:f~a2f ~g3e|ded^c defg|1 f~a2f ~g3e|dBgB BAAg:|2 bagb afge|dBgB BAAB||

